X: 1
T: the High Reel
P: piffero primo a0665
O: trad
%R: reel
F: http://ancients.sudburymuster.org/mus/sng/pdf/highreelC0.pdf
Z: 2020 John Chambers <jc:trillian.mit.edu>
M: 2/4
L: 1/16
K: A
|:\
a2fa eATA2 | cAeA fAef | a2fa eAAc | Bcdc BGGB |\
a2fa eATA2 | (3Bcd ef gefg | afge fdec | Bcdc BGGB ::\
cAeA fAeA | cAaf ecAB | cAeA fAeA | Bcdc BGGB |\
cAeA fAeA | (3Bcd ef gefg | afge fdec | Bcdc BGGB :|
